src/archive/bezillabrowser/bezillabrowser.svg

<svg xmlns="http://www.w3.org/2000/svg" viewBox="-4.5 -3 72.5 72.5"><path d="M34.64 1.34S33.76 2.71 32.98 4c-.51-.32-1.1-.71-1.1-.71s.02.05.03.05c-.42-.31-.96-.39-1.6-.36C30 2.5 28.88.6 28.88.6l-6.66 1.77s-.11 1.96-.13 2.24c-.03.03-.07.03-.07.03.01 0-1.27.47-1.27.47-.01 0-.14.03-.14.03-.95.38-1.87.82-2.75 1.26l-.12.06c-.03.03-1.17.65-1.17.65-.01 0-.37.22-.37.22-.01.01-.91.57-.91.57-.01 0-.42.27-.42.27l-.88.62-.12.08-.27.18-1.19.95-.6.48-.12.63s-.82 3.37-1.07 4.26c-1.32 1.29-5.69 5.44-9.37 7.78l-1.03.68L.6 34l10.27 6.64s1.43-.14 1.81-.17c-.18.49-.68 1.61-.68 1.61V47s7.96 5.34 8.1 5.47c-.49 1.72-1.66 5.92-1.66 5.92s1.2 3.75 4.77 5.63c4.27 2.32 10.98 2.84 10.98 2.84l16.94-12.83s4.21-.14 7.14-2.36c3.17-2.4 5.02-6.85 5.02-6.85s-1.28-2.5-1.55-3.04l.39-4.34-3.23-6.37-2.87-.49c-.31-.69-.53-1.08-.82-1.69.38-1.06 1.5-4.01 1.5-4.01l-3.16-6.27s-2.35.63-3.05.8c.31-1.4 1.57-7.04 1.57-7.04l-5.16-6.38s-3.13 2.62-4.37 3.68c.17-1.96.5-6.9.5-6.9L35.56-.15l-.92 1.49z"/><linearGradient id="a" x1="20" x2="20" y1="33.55" y2="33.55" gradientUnits="userSpaceOnUse"><stop offset="0" stop-color="#fff"/><stop offset="1" stop-color="gray"/></linearGradient><path fill="url(#a)" d="M19.97 33.54c.02-.02.03-.03.03-.04v.01l-.03.03z"/><linearGradient id="b" x1="63.52" x2="21.67" y1="53.13" y2="28.15" gradientUnits="userSpaceOnUse"><stop offset="0" stop-color="#fff"/><stop offset="1" stop-color="gray"/></linearGradient><path fill="url(#b)" d="M49.12 51.97s5.05-.95 8.37-3.28c2.01-1.45 2.94-4.78 2.94-4.78L45.5 14.55c-11.06-1.5-19.16 3.98-19.16 3.98l-2.24 5.03s-8.63 5.32-12.72 6.55v8.33l13.45-1.31 4.82-2.66-.95 6.03-7.83 6.4.09 3.55 11.11-5.57 1.22.47.23 17.68 15.6-11.06z"/><linearGradient id="c" x1="13.79" x2="45.52" y1="11.84" y2="11.84" gradientUnits="userSpaceOnUse"><stop offset="0" stop-color="#fff"/><stop offset="1" stop-color="gray"/></linearGradient><path fill="url(#c)" d="M26.34 18.53s8.1-5.48 19.16-3.98L30.74 5.11s-8.04-.18-16.95 6.54l12.55 6.88z"/><linearGradient id="d" x1="22.16" x2="29.41" y1="17.24" y2="13.03" gradientUnits="userSpaceOnUse"><stop offset="0" stop-color="#fff"/><stop offset="1" stop-color="gray"/></linearGradient><path fill="url(#d)" d="M26.34 18.53s8.1-5.48 19.16-3.98L30.74 5.11c-5.21.23-11.8 2.19-16.95 6.54l12.55 6.88z"/><linearGradient id="e" x1="8.2" x2="19.58" y1="27.46" y2="19.13" gradientUnits="userSpaceOnUse"><stop offset="0" stop-color="#fff"/><stop offset="1" stop-color="gray"/></linearGradient><path fill="url(#e)" d="M2.42 24.98l8.96 5.13s3.3-1.17 6.43-2.92c3.19-1.8 6.29-3.63 6.29-3.63L12.55 16.5S7.02 22 2.42 24.98z"/><linearGradient id="f" x1="12.58" x2="26.34" y1="17.62" y2="17.62" gradientUnits="userSpaceOnUse"><stop offset="0" stop-color="#fff"/><stop offset="1" stop-color="gray"/></linearGradient><path fill="url(#f)" d="M13.79 11.65l12.55 6.88-2.24 5.03-11.55-7.06 1.24-4.85z"/><linearGradient id="g" x1="6.69" x2="7.66" y1="35.47" y2="19.02" gradientUnits="userSpaceOnUse"><stop offset="0" stop-color="#fff"/><stop offset="1" stop-color="gray"/></linearGradient><path fill="url(#g)" d="M2.42 24.98l.27 7.82 8.69 5.64v-8.33l-8.96-5.13z"/><linearGradient id="h" x1="22.97" x2="28.44" y1="8.86" y2="6.53" gradientUnits="userSpaceOnUse"><stop offset="0" stop-color="#fff"/><stop offset="1" stop-color="#6b6b6b"/></linearGradient><path fill="url(#h)" d="M23.78 12.55l7.83-3.14-3.74-6.33-3.62.97-.47 8.5z"/><linearGradient id="i" x1="31.91" x2="37.68" y1="6.87" y2="6.87" gradientUnits="userSpaceOnUse"><stop offset="0" stop-color="#fff"/><stop offset="1" stop-color="gray"/></linearGradient><path fill="url(#i)" d="M32.32 9.03l4.14-6.53 4.33 1.68-.5 7.06-2.61-1.69-5.36-.52z"/><linearGradient id="j" x1="42.44" x2="49.78" y1="14.47" y2="14.47" gradientUnits="userSpaceOnUse"><stop offset="0" stop-color="#fff"/><stop offset="1" stop-color="#575757"/></linearGradient><path fill="url(#j)" d="M42.44 12.59l4.18-3.56 3.13 3.88-1.53 6.97-2.72-5.33-3.06-1.96z"/><linearGradient id="k" x1="14.95" x2="21.67" y1="46.5" y2="39.96" gradientUnits="userSpaceOnUse"><stop offset="0" stop-color="#fff"/><stop offset="1" stop-color="gray"/></linearGradient><path fill="url(#k)" d="M16.06 37.99l-1.9 4.52 6.71 4.39 7.83-6.4.95-6.03-4.82 2.66-8.77.86z"/><linearGradient id="l" x1="17.79" x2="17.17" y1="49.19" y2="42.62" gradientUnits="userSpaceOnUse"><stop offset="0" stop-color="#fff"/><stop offset="1" stop-color="gray"/></linearGradient><path fill="url(#l)" d="M14.16 45.88v-3.37l6.71 4.39.09 3.55-6.8-4.57z"/><linearGradient id="m" x1="26.89" x2="28.29" y1="65.47" y2="49.12" gradientUnits="userSpaceOnUse"><stop offset="0" stop-color="#fff"/><stop offset="1" stop-color="gray"/></linearGradient><path fill="url(#m)" d="M23.22 49.3l-2.02 7.2s.83 3.31 3.82 4.92c3.21 1.66 8.5 1.61 8.5 1.61l-.23-17.68-1.22-.47-8.85 4.42z"/><linearGradient id="n" x1="49.28" x2="54.38" y1="25.11" y2="25.11" gradientUnits="userSpaceOnUse"><stop offset="0" stop-color="#fff"/><stop offset="1" stop-color="#4f4f4f"/></linearGradient><path fill="url(#n)" d="M49.26 21.97l3.18-.85L54.38 25l-1.54 4.03-3.58-7.06z"/><linearGradient id="o" x1="54.64" x2="59.95" y1="37.37" y2="37.37" gradientUnits="userSpaceOnUse"><stop offset="0" stop-color="#fff"/><stop offset="1" stop-color="#404040"/></linearGradient><path fill="url(#o)" d="M57.5 33l-2.87-.5 4.92 9.73.4-4.39L57.5 33z"/><linearGradient id="p" x1="27.22" x2="20.77" y1="35.32" y2="39.62" gradientUnits="userSpaceOnUse"><stop offset="0" stop-color="#a91212"/><stop offset="1" stop-color="#d71212"/></linearGradient><path fill="url(#p)" d="M18.98 37.7l-1.17 3.04 1.93 1.72 9.5-5.41.41-2.58-4.82 2.66-5.85.57z"/><linearGradient id="q" x1="26.27" x2="25.7" y1="2.86" y2="9.62" gradientUnits="userSpaceOnUse"><stop offset="0" stop-color="#fff"/><stop offset="1" stop-color="#6b6b6b"/></linearGradient><path fill="url(#q)" d="M23.78 12.55l.47-8.5 3.62-.97.23.37-3.38 1.01-.4 7.89-.54.2z"/><linearGradient id="r" x1="36.15" x2="33.69" y1="3.11" y2="7.45" gradientUnits="userSpaceOnUse"><stop offset="0" stop-color="#fff"/><stop offset="1" stop-color="gray"/></linearGradient><path fill="url(#r)" d="M32.32 9.03l.63.07 3.88-6.47-.37-.13-4.14 6.53z"/><linearGradient id="s" x1="47.96" x2="45.17" y1="8.65" y2="10.69" gradientUnits="userSpaceOnUse"><stop offset="0" stop-color="#fff"/><stop offset="1" stop-color="gray"/></linearGradient><path fill="url(#s)" d="M42.44 12.59l4.18-3.56.35.41-4.05 3.47-.48-.32z"/><linearGradient id="t" x1="52.78" x2="51.2" y1="20.38" y2="21.54" gradientUnits="userSpaceOnUse"><stop offset="0" stop-color="#fff"/><stop offset="1" stop-color="gray"/></linearGradient><path fill="url(#t)" d="M49.26 21.97l3.18-.85.14.35-3.08.92-.24-.42z"/><linearGradient id="u" x1="57.49" x2="56.42" y1="32.13" y2="32.91" gradientUnits="userSpaceOnUse"><stop offset="0" stop-color="#fff"/><stop offset="1" stop-color="gray"/></linearGradient><path fill="url(#u)" d="M54.63 32.5l2.87.5.29.56-2.84-.52-.32-.54z"/><path fill="#007900" fill-opacity=".596" d="M59.49 42.02l.46-4.18L57.5 33l-2.87-.5-1.78-3.49L54.38 25l-1.8-3.53-.14-.35-3.18.85-1.04-2.09 1.53-6.96-2.78-3.48-.35-.41-4.18 3.56.15.1-2.3-1.45.5-7.06-3.96-1.55-.37-.13-2.82 4.46-2.9-1.85s-.6-.03-1.62.1l-1.25-2.13-3.62.97-.12 2.18C20.58 7.24 16.9 9 13.79 11.65l-1.24 4.85S7.02 22 2.42 24.98l.27 7.82 8.69 5.64 4.65-.45-1.87 4.52v3.37l6.8 4.57 11.11-5.57 1.22.47.23 17.68 15.6-11.06s5.03-.91 7.88-2.96c2.78-1.98 3.43-5.1 3.43-5.1l-.94-1.89zm-31.13-1.85L20.57 46l-5.65-3.61 1.69-4.46 8.22-.8 4.48-2.46-.95 5.5zm3.9-17.67c-.18.63-.61 1.19-1.18 1.5-1.21.7-2.74.26-3.45-.94 0 0-.02-.06-.03-.12.16-.1.47-.22.74-.33l1.55-.71 1.43-.96c.19-.19.45-.36.65-.46.03.03.05.1.05.1.22.39.36.8.36 1.24 0 .21-.06.44-.12.68z"/><path fill="red" d="M32.2 22.76c-.18.6-.56 1.08-1.08 1.35-1.05.62-2.42.24-3.03-.85 0 0-.02-.04-.07-.12.19-.07.45-.17.68-.27l1.39-.63 1.26-.87c.17-.13.4-.3.56-.39.06.02.09.09.09.09.19.33.27.7.27 1.08 0 .22-.03.43-.07.61z"/><path fill-opacity=".376" d="M23 49.4l12.97-7.42s2.35-5.19 2.7-6.29c-.13 1.1-1.92 6.81-1.92 6.81l-14.27 8.17.52-1.27zm.78-36.85l7.83-3.14 3.89 2.14-3.63.98-8.09.02zm8.54-3.52l9.4 3.09-4.04-2.57-5.36-.52z"/><path fill-opacity=".376" d="M24.25 48.78l.15-.05 3.35 2.03 5.76-.46-6.02 1.23-3.24-2.75zm-1.16 2.03l4.25 3.24 6.05.01-6.33.76-3.97-4.01z"/><path fill-opacity=".376" d="M21.34 52.93l4.81 4.31 7.59-.9L25.88 58l-4.54-5.07zm-.33 3.39l4.86 4.33 7.58-.9-7.86 1.67-4.58-5.1z"/><linearGradient id="v" x1="52.85" x2="49.95" y1="43.17" y2="44.07" gradientUnits="userSpaceOnUse"><stop offset="0" stop-color="#fff"/><stop offset="1"/></linearGradient><path fill="url(#v)" d="M49.81 36l7.68 13.82L49.14 52l.67-16z"/><path fill-opacity=".376" d="M26.65 22.91l3.24-1.01 3.61-3.17-6.85 4.18z"/><path fill="#ff0" d="M30.87 22.35c0-.48.33-.87.7-.87.39 0 .67.39.67.87 0 .49-.28.88-.67.88-.37 0-.7-.39-.7-.88z"/><path fill="#fff" fill-opacity=".847" d="M19.66 41.35l2.86-1.23-2.91.56-.67-.56.72 1.23z"/><path fill="#ff6" fill-opacity=".596" d="M23 49.4l-2 7.16s.41 3.12 3.48 4.72c3.12 1.68 8.86 1.86 8.86 1.86l-.22-17.69-1.23-.49L23 49.4z"/><path fill="none" stroke="#000" stroke-width="4" d="M46.873 36.373s-4 4-4 11c-2-4-7-5-7-5s-1 6 5 9c0 0 0 1-6 1 0 0 3 6 11 4v4h2v-4c8 2 11-4 11-4-6 0-6-1-6-1 6-3 5-9 5-9s-5 1-7 5c0-7-4-11-4-11z"/><radialGradient id="w" cx="0" cy="0" r="64" gradientUnits="userSpaceOnUse" gradientTransform="matrix(.0874 -.379 .4747 .1095 8.15 41.59)"><stop offset="0" stop-color="#ffb11b"/><stop offset="1" stop-color="#fff9c7"/></radialGradient><path fill="url(#w)" d="M15 36s-4 4-4 11c-2-4-7-5-7-5s-1 6 5 9c0 0 0 1-6 1 0 0 3 6 11 4v4h2v-4c8 2 11-4 11-4-6 0-6-1-6-1 6-3 5-9 5-9s-5 1-7 5c0-7-4-11-4-11z" transform="translate(31.872 .372)"/></svg>

<?xml version="1.0" encoding="UTF-8" standalone="yes"?>
<svg version="1.1" width="64" height="64" color-interpolation="linearRGB"
     xmlns:svg="http://www.w3.org/2000/svg" xmlns="http://www.w3.org/2000/svg">
 <g>
  <path style="fill:#000000"
        d="M34.64 1.34C34.64 1.34 33.76 2.71 32.98 4C32.47 3.68 31.88 3.29 31.88 3.29C31.88 3.29 31.9 3.34 31.91 3.34C31.49 3.03 30.95 2.95 30.31 2.98C30 2.5 28.88 0.6 28.88 0.6L22.22 2.37C22.22 2.37 22.11 4.33 22.09 4.61C22.06 4.64 22.02 4.64 22.02 4.64C22.03 4.64 20.75 5.11 20.75 5.11C20.74 5.11 20.61 5.14 20.61 5.14C19.66 5.52 18.74 5.96 17.86 6.4L17.74 6.46C17.71 6.49 16.57 7.11 16.57 7.11C16.56 7.11 16.2 7.33 16.2 7.33C16.19 7.34 15.29 7.9 15.29 7.9C15.28 7.9 14.87 8.17 14.87 8.17L13.99 8.79L13.87 8.87L13.6 9.05L12.41 10L11.81 10.48L11.69 11.11C11.69 11.11 10.87 14.48 10.62 15.37C9.3 16.66 4.93 20.81 1.25 23.15L0.22 23.83L0.6 34L10.87 40.64C10.87 40.64 12.3 40.5 12.68 40.47C12.5 40.96 12 42.08 12 42.08V47C12 47 19.96 52.34 20.1 52.47C19.61 54.19 18.44 58.39 18.44 58.39C18.44 58.39 19.64 62.14 23.21 64.02C27.48 66.34 34.19 66.86 34.19 66.86L51.13 54.03C51.13 54.03 55.34 53.89 58.27 51.67C61.44 49.27 63.29 44.82 63.29 44.82C63.29 44.82 62.01 42.32 61.74 41.78C61.82 40.9 62.13 37.44 62.13 37.44L58.9 31.07C58.9 31.07 56.91 30.73 56.03 30.58C55.72 29.89 55.5 29.5 55.21 28.89C55.59 27.83 56.71 24.88 56.71 24.88L53.55 18.61C53.55 18.61 51.2 19.24 50.5 19.41C50.81 18.01 52.07 12.37 52.07 12.37L46.91 5.99C46.91 5.99 43.78 8.61 42.54 9.67C42.71 7.71 43.04 2.77 43.04 2.77L35.56 -0.15L34.64 1.34z"
  />
  <linearGradient id="gradient0" gradientUnits="userSpaceOnUse" x1="20" y1="33.55" x2="20" y2="33.55">
   <stop offset="0" stop-color="#ffffff"/>
   <stop offset="1" stop-color="#808080"/>
  </linearGradient>
  <path style="fill:url(#gradient0)"
        d="M19.97 33.54C19.99 33.52 20 33.51 20 33.5V33.51L19.97 33.54z"
  />
  <linearGradient id="gradient1" gradientUnits="userSpaceOnUse" x1="63.52" y1="53.13" x2="21.67" y2="28.15">
   <stop offset="0" stop-color="#ffffff"/>
   <stop offset="1" stop-color="#808080"/>
  </linearGradient>
  <path style="fill:url(#gradient1)"
        d="M49.12 51.97C49.12 51.97 54.17 51.02 57.49 48.69C59.5 47.24 60.43 43.91 60.43 43.91L45.5 14.55C34.44 13.05 26.34 18.53 26.34 18.53L24.1 23.56C24.1 23.56 15.47 28.88 11.38 30.11V38.44L24.83 37.13L29.65 34.47L28.7 40.5L20.87 46.9L20.96 50.45L32.07 44.88L33.29 45.35L33.52 63.03L49.12 51.97z"
  />
  <linearGradient id="gradient2" gradientUnits="userSpaceOnUse" x1="13.79" y1="11.84" x2="45.52" y2="11.84">
   <stop offset="0" stop-color="#ffffff"/>
   <stop offset="1" stop-color="#808080"/>
  </linearGradient>
  <path style="fill:url(#gradient2)"
        d="M26.34 18.53C26.34 18.53 34.44 13.05 45.5 14.55L30.74 5.11C30.74 5.11 22.7 4.93 13.79 11.65L26.34 18.53z"
  />
  <linearGradient id="gradient3" gradientUnits="userSpaceOnUse" x1="22.16" y1="17.24" x2="29.41" y2="13.03">
   <stop offset="0" stop-color="#ffffff"/>
   <stop offset="1" stop-color="#808080"/>
  </linearGradient>
  <path style="fill:url(#gradient3)"
        d="M26.34 18.53C26.34 18.53 34.44 13.05 45.5 14.55L30.74 5.11C25.53 5.34 18.94 7.3 13.79 11.65L26.34 18.53z"
  />
  <linearGradient id="gradient4" gradientUnits="userSpaceOnUse" x1="8.2" y1="27.46" x2="19.58" y2="19.13">
   <stop offset="0" stop-color="#ffffff"/>
   <stop offset="1" stop-color="#808080"/>
  </linearGradient>
  <path style="fill:url(#gradient4)"
        d="M2.42 24.98L11.38 30.11C11.38 30.11 14.68 28.94 17.81 27.19C21 25.39 24.1 23.56 24.1 23.56L12.55 16.5C12.55 16.5 7.02 22 2.42 24.98z"
  />
  <linearGradient id="gradient5" gradientUnits="userSpaceOnUse" x1="12.58" y1="17.62" x2="26.34" y2="17.62">
   <stop offset="0" stop-color="#ffffff"/>
   <stop offset="1" stop-color="#808080"/>
  </linearGradient>
  <path style="fill:url(#gradient5)"
        d="M13.79 11.65L26.34 18.53L24.1 23.56L12.55 16.5L13.79 11.65z"
  />
  <linearGradient id="gradient6" gradientUnits="userSpaceOnUse" x1="6.69" y1="35.47" x2="7.66" y2="19.02">
   <stop offset="0" stop-color="#ffffff"/>
   <stop offset="1" stop-color="#808080"/>
  </linearGradient>
  <path style="fill:url(#gradient6)"
        d="M2.42 24.98L2.69 32.8L11.38 38.44V30.11L2.42 24.98z"
  />
  <linearGradient id="gradient7" gradientUnits="userSpaceOnUse" x1="22.97" y1="8.86" x2="28.44" y2="6.53">
   <stop offset="0" stop-color="#ffffff"/>
   <stop offset="1" stop-color="#6b6b6b"/>
  </linearGradient>
  <path style="fill:url(#gradient7)"
        d="M23.78 12.55L31.61 9.41L27.87 3.08L24.25 4.05L23.78 12.55z"
  />
  <linearGradient id="gradient8" gradientUnits="userSpaceOnUse" x1="31.91" y1="6.87" x2="37.68" y2="6.87">
   <stop offset="0" stop-color="#ffffff"/>
   <stop offset="1" stop-color="#808080"/>
  </linearGradient>
  <path style="fill:url(#gradient8)"
        d="M32.32 9.03L36.46 2.5L40.79 4.18L40.29 11.24L37.68 9.55L32.32 9.03z"
  />
  <linearGradient id="gradient9" gradientUnits="userSpaceOnUse" x1="42.44" y1="14.47" x2="49.78" y2="14.47">
   <stop offset="0" stop-color="#ffffff"/>
   <stop offset="1" stop-color="#575757"/>
  </linearGradient>
  <path style="fill:url(#gradient9)"
        d="M42.44 12.59L46.62 9.03L49.75 12.91L48.22 19.88L45.5 14.55L42.44 12.59z"
  />
  <linearGradient id="gradient10" gradientUnits="userSpaceOnUse" x1="14.95" y1="46.5" x2="21.67" y2="39.96">
   <stop offset="0" stop-color="#ffffff"/>
   <stop offset="1" stop-color="#808080"/>
  </linearGradient>
  <path style="fill:url(#gradient10)"
        d="M16.06 37.99L14.16 42.51L20.87 46.9L28.7 40.5L29.65 34.47L24.83 37.13L16.06 37.99z"
  />
  <linearGradient id="gradient11" gradientUnits="userSpaceOnUse" x1="17.79" y1="49.19" x2="17.17" y2="42.62">
   <stop offset="0" stop-color="#ffffff"/>
   <stop offset="1" stop-color="#808080"/>
  </linearGradient>
  <path style="fill:url(#gradient11)"
        d="M14.16 45.88V42.51L20.87 46.9L20.96 50.45L14.16 45.88z"
  />
  <linearGradient id="gradient12" gradientUnits="userSpaceOnUse" x1="26.89" y1="65.47" x2="28.29" y2="49.12">
   <stop offset="0" stop-color="#ffffff"/>
   <stop offset="1" stop-color="#808080"/>
  </linearGradient>
  <path style="fill:url(#gradient12)"
        d="M23.22 49.3L21.2 56.5C21.2 56.5 22.03 59.81 25.02 61.42C28.23 63.08 33.52 63.03 33.52 63.03L33.29 45.35L32.07 44.88L23.22 49.3z"
  />
  <linearGradient id="gradient13" gradientUnits="userSpaceOnUse" x1="49.28" y1="25.11" x2="54.38" y2="25.11">
   <stop offset="0" stop-color="#ffffff"/>
   <stop offset="1" stop-color="#4f4f4f"/>
  </linearGradient>
  <path style="fill:url(#gradient13)"
        d="M49.26 21.97L52.44 21.12L54.38 25L52.84 29.03L49.26 21.97z"
  />
  <linearGradient id="gradient14" gradientUnits="userSpaceOnUse" x1="54.64" y1="37.37" x2="59.95" y2="37.37">
   <stop offset="0" stop-color="#ffffff"/>
   <stop offset="1" stop-color="#404040"/>
  </linearGradient>
  <path style="fill:url(#gradient14)"
        d="M57.5 33L54.63 32.5L59.55 42.23L59.95 37.84L57.5 33z"
  />
  <linearGradient id="gradient15" gradientUnits="userSpaceOnUse" x1="27.22" y1="35.32" x2="20.77" y2="39.62">
   <stop offset="0" stop-color="#a91212"/>
   <stop offset="1" stop-color="#d71212"/>
  </linearGradient>
  <path style="fill:url(#gradient15)"
        d="M18.98 37.7L17.81 40.74L19.74 42.46L29.24 37.05L29.65 34.47L24.83 37.13L18.98 37.7z"
  />
  <linearGradient id="gradient16" gradientUnits="userSpaceOnUse" x1="26.27" y1="2.86" x2="25.7" y2="9.62">
   <stop offset="0" stop-color="#ffffff"/>
   <stop offset="1" stop-color="#6b6b6b"/>
  </linearGradient>
  <path style="fill:url(#gradient16)"
        d="M23.78 12.55L24.25 4.05L27.87 3.08L28.1 3.45L24.72 4.46L24.32 12.35L23.78 12.55z"
  />
  <linearGradient id="gradient17" gradientUnits="userSpaceOnUse" x1="36.15" y1="3.11" x2="33.69" y2="7.45">
   <stop offset="0" stop-color="#ffffff"/>
   <stop offset="1" stop-color="#808080"/>
  </linearGradient>
  <path style="fill:url(#gradient17)"
        d="M32.32 9.03L32.95 9.1L36.83 2.63L36.46 2.5L32.32 9.03z"
  />
  <linearGradient id="gradient18" gradientUnits="userSpaceOnUse" x1="47.96" y1="8.65" x2="45.17" y2="10.69">
   <stop offset="0" stop-color="#ffffff"/>
   <stop offset="1" stop-color="#808080"/>
  </linearGradient>
  <path style="fill:url(#gradient18)"
        d="M42.44 12.59L46.62 9.03L46.97 9.44L42.92 12.91L42.44 12.59z"
  />
  <linearGradient id="gradient19" gradientUnits="userSpaceOnUse" x1="52.78" y1="20.38" x2="51.2" y2="21.54">
   <stop offset="0" stop-color="#ffffff"/>
   <stop offset="1" stop-color="#808080"/>
  </linearGradient>
  <path style="fill:url(#gradient19)"
        d="M49.26 21.97L52.44 21.12L52.58 21.47L49.5 22.39L49.26 21.97z"
  />
  <linearGradient id="gradient20" gradientUnits="userSpaceOnUse" x1="57.49" y1="32.13" x2="56.42" y2="32.91">
   <stop offset="0" stop-color="#ffffff"/>
   <stop offset="1" stop-color="#808080"/>
  </linearGradient>
  <path style="fill:url(#gradient20)"
        d="M54.63 32.5L57.5 33L57.79 33.56L54.95 33.04L54.63 32.5z"
  />
  <path style="fill:#007900; fill-opacity:0.596"
        d="M59.49 42.02L59.95 37.84L57.5 33L54.63 32.5L52.85 29.01L54.38 25L52.58 21.47L52.44 21.12L49.26 21.97L48.22 19.88L49.75 12.92L46.97 9.44L46.62 9.03L42.44 12.59L42.59 12.69L40.29 11.24L40.79 4.18L36.83 2.63L36.46 2.5L33.64 6.96L30.74 5.11C30.74 5.11 30.14 5.08 29.12 5.21L27.87 3.08L24.25 4.05L24.13 6.23C20.58 7.24 16.9 9 13.79 11.65L12.55 16.5C12.55 16.5 7.02 22 2.42 24.98L2.69 32.8L11.38 38.44L16.03 37.99L14.16 42.51V45.88L20.96 50.45L32.07 44.88L33.29 45.35L33.52 63.03L49.12 51.97C49.12 51.97 54.15 51.06 57 49.01C59.78 47.03 60.43 43.91 60.43 43.91L59.49 42.02z
           M28.36 40.17L20.57 46L14.92 42.39L16.61 37.93L24.83 37.13L29.31 34.67L28.36 40.17z
           M32.26 22.5C32.08 23.13 31.65 23.69 31.08 24C29.87 24.7 28.34 24.26 27.63 23.06C27.63 23.06 27.61 23 27.6 22.94C27.76 22.84 28.07 22.72 28.34 22.61L29.89 21.9L31.32 20.94C31.51 20.75 31.77 20.58 31.97 20.48C32 20.51 32.02 20.58 32.02 20.58C32.24 20.97 32.38 21.38 32.38 21.82C32.38 22.03 32.32 22.26 32.26 22.5z"
  />
  <path style="fill:#ff0000"
        d="M32.2 22.76C32.02 23.36 31.64 23.84 31.12 24.11C30.07 24.73 28.7 24.35 28.09 23.26C28.09 23.26 28.07 23.22 28.02 23.14C28.21 23.07 28.47 22.97 28.7 22.87L30.09 22.24L31.35 21.37C31.52 21.24 31.75 21.07 31.91 20.98C31.97 21 32 21.07 32 21.07C32.19 21.4 32.27 21.77 32.27 22.15C32.27 22.37 32.24 22.58 32.2 22.76z"
  />
  <path style="fill:#000000; fill-opacity:0.3764"
        d="M23 49.4L35.97 41.98C35.97 41.98 38.32 36.79 38.67 35.69C38.54 36.79 36.75 42.5 36.75 42.5L22.48 50.67L23 49.4z"
  />
  <path style="fill:#000000; fill-opacity:0.3764"
        d="M23.78 12.55L31.61 9.41L35.5 11.55L31.87 12.53L23.78 12.55z"
  />
  <path style="fill:#000000; fill-opacity:0.3764"
        d="M32.32 9.03L41.72 12.12L37.68 9.55L32.32 9.03z"
  />
  <path style="fill:#000000; fill-opacity:0.3764"
        d="M24.25 48.78L24.4 48.73L27.75 50.76L33.51 50.3L27.49 51.53L24.25 48.78z"
  />
  <path style="fill:#000000; fill-opacity:0.3764"
        d="M23.09 50.81L27.34 54.05L33.39 54.06L27.06 54.82L23.09 50.81z"
  />
  <path style="fill:#000000; fill-opacity:0.3764"
        d="M21.34 52.93L26.15 57.24L33.74 56.34L25.88 58L21.34 52.93z"
  />
  <path style="fill:#000000; fill-opacity:0.3764"
        d="M21.01 56.32L25.87 60.65L33.45 59.75L25.59 61.42L21.01 56.32z"
  />
  <linearGradient id="gradient21" gradientUnits="userSpaceOnUse" x1="52.85" y1="43.17" x2="49.95" y2="44.07">
   <stop offset="0" stop-color="#ffffff"/>
   <stop offset="1" stop-color="#000000"/>
  </linearGradient>
  <path style="fill:url(#gradient21)"
        d="M49.81 36L57.49 49.82L49.14 52L49.81 36z"
  />
  <path style="fill:#000000; fill-opacity:0.3764"
        d="M26.65 22.91L29.89 21.9L33.5 18.73L26.65 22.91z"
  />
  <path style="fill:#ffff00"
        d="M30.87 22.35C30.87 21.87 31.2 21.48 31.57 21.48C31.96 21.48 32.24 21.87 32.24 22.35C32.24 22.84 31.96 23.23 31.57 23.23C31.2 23.23 30.87 22.84 30.87 22.35z"
  />
  <path style="fill:#ffffff; fill-opacity:0.847"
        d="M19.66 41.35L22.52 40.12L19.61 40.68L18.94 40.12L19.66 41.35z"
  />
  <path style="fill:#ffff66; fill-opacity:0.596"
        d="M23 49.4L21 56.56C21 56.56 21.41 59.68 24.48 61.28C27.6 62.96 33.34 63.14 33.34 63.14L33.12 45.45L31.89 44.96L23 49.4z"
  />
  <path style="fill:none; stroke:#000000; stroke-width:4"
        d="M15 36C15 36 11 40 11 47C9 43 4 42 4 42C4 42 3 48 9 51C9 51 9 52 3 52C3 52 6 58 14 56V60H16V56C24 58 27 52 27 52C21 52 21 51 21 51C27 48 26 42 26 42C26 42 21 43 19 47C19 40 15 36 15 36z"
        transform="matrix(1,0,0,1,31.8725,0.3725)"
  />
  <radialGradient id="gradient22" gradientUnits="userSpaceOnUse" cx="0" cy="0" r="64" gradientTransform="matrix(0.0874,-0.379,0.4747,0.1095,8.1495,41.5886)">
   <stop offset="0" stop-color="#ffb11b"/>
   <stop offset="1" stop-color="#fff9c7"/>
  </radialGradient>
  <path style="fill:url(#gradient22)"
        d="M15 36C15 36 11 40 11 47C9 43 4 42 4 42C4 42 3 48 9 51C9 51 9 52 3 52C3 52 6 58 14 56V60H16V56C24 58 27 52 27 52C21 52 21 51 21 51C27 48 26 42 26 42C26 42 21 43 19 47C19 40 15 36 15 36z"
        transform="matrix(1,0,0,1,31.8725,0.3725)"
  />
 </g>
</svg>
